X:35
T:Hot Potato Polka*, The 
B:Petrie.036 % unnamed
F:file id: petrie/035hot
N:Source has this tune as eight measures, no breaks 
or repeats. 
Q:100
M:2/4
L:1/8
R:polka
K:D % source key Eb
AA/B/ =cB/^c/|d/A/A/B/ =cA|AA/B/ =cB/A/|A/B/d/e/ d2:|
EG/E/ DE/G/|=c/d/c/B/ cA/^c/|d/f/e/c/ dA/G/|ED D2 :|

